X:1
T:Côte d’Ivoire, CMD
T:Côte d’Ivoire, CMD
T:John Robson Sweney, 1885
T:Public Domain Courtesy of the Cyber Hymnal™
C:John Robson Sweney, 1885
Z:Public Domain
Z:Courtesy of the Cyber Hymnal™
%%score ( 1 2 ) ( 3 4 )
L:1/8
Q:1/4=107
M:4/4
K:Bb
V:1 treble 
V:2 treble 
V:3 bass 
V:4 bass 
V:1
 ([DB][Ec]) | [Fd]3 [Fd] ([Fd][Ec]) ([DB][Fd]) | [Ec]3 [DB] [FA]2 [FB]2 | [Fc]3 [Fd] [Fe]2 [EA]2 | %4
 [DB]6 ([DB][Ec]) | [Fd]3 [Fd] ([Fd][Ec]) ([DB][Fd]) | [Ec]3 [DB] [FA]2 [FB]2 | %7
 [Fc]3 [Fe] [Fd]2 [Ec]2 | [DB]6 [FB]2 | [GB]3 [^FA] [GB]2 [EG]2 | [DF]3 D [DF]2 [Fd]2 | %11
 [=Ed]3 [Ec] [EB]2 [EG]2 | [Ec]6 ([DB][Ec]) | [Fd]3 [Fd] ([Fd][Ec]) ([DB][Fd]) | %14
 [Ec]3 [DB] [FA]2 [FB]2 | [Fc]3 [Fe] [Fd]2 [Ec]2 | [DB]6 |] %17
V:2
 x2 | x8 | x8 | x8 | x8 | x8 | x8 | x8 | x8 | x8 | x3 D x4 | x8 | x8 | x8 | x8 | x8 | x6 |] %17
V:3
 [B,,F,]2 | [B,,B,]3 [B,,B,] [B,,B,]2 [B,,B,]2 | [F,A,]3 [F,B,] [F,C]2 [F,D]2 | %3
 [F,E]3 [F,B,] [F,A,]2 [F,C]2 | [B,,B,]6 [B,,F,]2 | [B,,B,]3 [B,,B,] [B,,B,]2 [B,,B,]2 | %6
 [F,A,]3 [F,B,] [F,C]2 [F,D]2 | [F,E]3 [F,C] [F,B,]2 [F,A,]2 | [B,,B,]6 [B,,D]2 | %9
 [E,E]3 [E,E] [E,E]2 [E,B,]2 | [B,,B,]3 [B,,F,] [B,,B,]2 B,2 | [G,C]3 [G,C] [G,C]2 [G,B,]2 | %12
 [F,A,]6 [B,,F,]2 | [B,,B,]3 [B,,B,] [B,,B,]2 [B,,B,]2 | [F,A,]3 [F,B,] [F,C]2 [F,D]2 | %15
 [F,E]3 [F,C] [F,B,]2 [F,A,]2 | [B,,B,]6 |] %17
V:4
 x2 | x8 | x8 | x8 | x8 | x8 | x8 | x8 | x8 | x8 | x6 B,2 | x8 | x8 | x8 | x8 | x8 | x6 |] %17

